dist/icons/svgs/sun-solid.svg

<svg xmlns="http://www.w3.org/2000/svg" width="24" height="24" fill="currentcolor" class="icon-sun-solid" viewBox="0 0 24 24">
  <path d="M16.1013 2.07813C16.2966 2.15625 16.4529 2.3125 16.4919 2.54688L17.2732 6.72657L21.4529 7.50782C21.6873 7.54688 21.8435 7.70313 21.9216 7.89844C21.9998 8.09375 21.9998 8.32813 21.8826 8.48438L19.4216 12L21.8826 15.5547C21.9998 15.7109 21.9998 15.9453 21.9216 16.1406C21.8435 16.3359 21.6873 16.4922 21.4529 16.5313L17.2732 17.2734L16.4919 21.4922C16.4529 21.7266 16.2966 21.8828 16.1013 21.9609C15.906 22.0391 15.6716 22.0391 15.5154 21.9219L11.9998 19.4609L8.44507 21.9219C8.28882 22.0391 8.05445 22.0391 7.85914 21.9609C7.66382 21.8828 7.50757 21.7266 7.46851 21.4922L6.72632 17.2734L2.50757 16.5313C2.2732 16.4922 2.11695 16.3359 2.03882 16.1406C1.9607 15.9453 1.9607 15.7109 2.07789 15.5547L4.53882 12L2.07789 8.48438C1.9607 8.32813 1.9607 8.09375 2.03882 7.89844C2.11695 7.70313 2.2732 7.54688 2.50757 7.50782L6.72632 6.72657L7.46851 2.54688C7.50757 2.3125 7.66382 2.15625 7.85914 2.07813C8.05445 2 8.28882 2 8.44507 2.11719L11.9998 4.57813L15.5154 2.11719C15.6716 2 15.906 2 16.1013 2.07813ZM8.24976 12C8.24976 10.6719 8.95289 9.46094 10.1248 8.75782C11.2576 8.09375 12.7029 8.09375 13.8748 8.75782C15.0076 9.46094 15.7498 10.6719 15.7498 12C15.7498 13.3672 15.0076 14.5781 13.8748 15.2813C12.7029 15.9453 11.2576 15.9453 10.1248 15.2813C8.95289 14.5781 8.24976 13.3672 8.24976 12ZM16.9998 12C16.9998 10.2422 16.0232 8.60157 14.4998 7.70313C12.9373 6.80469 11.0232 6.80469 9.49976 7.70313C7.93726 8.60157 6.99976 10.2422 6.99976 12C6.99976 13.7969 7.93726 15.4375 9.49976 16.3359C11.0232 17.2344 12.9373 17.2344 14.4998 16.3359C16.0232 15.4375 16.9998 13.7969 16.9998 12Z"/>
</svg>

<svg xmlns="http://www.w3.org/2000/svg" width="24" height="24" fill="currentColor" class="icon-sun-solid" viewBox="0 0 24 24">
  <path d="M16.101 2.078a.6.6 0 0 1 .39.469l.782 4.18 4.18.78a.61.61 0 0 1 .469.391c.078.196.078.43-.04.586L19.423 12l2.46 3.555c.118.156.118.39.04.586a.6.6 0 0 1-.47.39l-4.179.742-.781 4.22a.6.6 0 0 1-.39.468c-.196.078-.43.078-.587-.04L12 19.462l-3.555 2.46c-.156.118-.39.118-.586.04a.6.6 0 0 1-.39-.469l-.743-4.219-4.218-.742a.6.6 0 0 1-.47-.39c-.077-.196-.077-.43.04-.586L4.538 12l-2.46-3.516c-.117-.156-.117-.39-.04-.586a.6.6 0 0 1 .47-.39l4.218-.781.743-4.18a.6.6 0 0 1 .39-.469c.195-.078.43-.078.586.04L12 4.577l3.515-2.46c.157-.118.391-.118.586-.04M8.25 12c0-1.328.703-2.54 1.875-3.242 1.133-.664 2.578-.664 3.75 0 1.133.703 1.875 1.914 1.875 3.242 0 1.367-.742 2.578-1.875 3.281-1.172.664-2.617.664-3.75 0C8.953 14.578 8.25 13.367 8.25 12M17 12c0-1.758-.977-3.398-2.5-4.297-1.563-.898-3.477-.898-5 0A4.96 4.96 0 0 0 7 12a4.97 4.97 0 0 0 2.5 4.336c1.523.898 3.437.898 5 0 1.523-.898 2.5-2.54 2.5-4.336"/>
</svg>
